X:13
T:PADDY CAREY'S FORTUNE -- JIG.
R:jig
B:Coles pg. 75.5
Z:John B. Walsh, <walsh:mat:h.ubc.ca> 5/17/02
M:6/8
L:1/8
K:C
(vG2.c) {d}cBc|("4"e2.c) cBc|(A2.d) (d2.e)|(f2.d) (B2.G)|
"SEGUE"G2c {d}cBc |"4"e2c cBc|BAG GAB|cd"4"e (d2c):|
|:(vc2.e) (f2.a)| "SEGUE"g2a gec|c2e f2a|gec d3|
c2e f2a|g2a gec|cBA GAB|cd"4"e (d2c):|
